build/img/icon-vkontakte.svg

<svg width="20" height="20" viewBox="0 0 20 20" fill="none" xmlns="http://www.w3.org/2000/svg">
<path d="M10 0C4.47708 0 0 4.47708 0 10C0 15.5229 4.47708 20 10 20C15.5229 20 20 15.5229 20 10C20 4.47708 15.5229 0 10 0ZM13.8458 11.2823C13.8458 11.2823 14.7302 12.1552 14.9479 12.5604C14.9542 12.5688 14.9573 12.5771 14.9594 12.5812C15.0479 12.7302 15.0688 12.8458 15.025 12.9323C14.9521 13.076 14.7021 13.1469 14.6167 13.1531C14.6167 13.1531 13.0979 13.1531 13.0542 13.1531C12.9458 13.1531 12.7188 13.125 12.4437 12.9354C12.2323 12.7875 12.024 12.5448 11.8208 12.3083C11.5177 11.9562 11.2552 11.6521 10.9906 11.6521C10.9573 11.6521 10.9229 11.6573 10.8917 11.6677C10.6917 11.7323 10.4354 12.0177 10.4354 12.7781C10.4354 13.0156 10.2479 13.1521 10.1156 13.1521C10.1156 13.1521 9.43333 13.1521 9.4 13.1521C9.15625 13.1521 7.88646 13.0667 6.76146 11.8802C5.38437 10.4271 4.14479 7.5125 4.13437 7.48542C4.05625 7.29687 4.21771 7.19583 4.39375 7.19583H5.97187C6.18229 7.19583 6.25104 7.32396 6.29896 7.4375C6.35521 7.56979 6.56146 8.09583 6.9 8.6875C7.44896 9.65208 7.78542 10.0437 8.05521 10.0437C8.10625 10.0437 8.15312 10.0302 8.2 10.0062C8.55208 9.81042 8.48646 8.55521 8.47083 8.29479C8.47083 8.24583 8.46979 7.73333 8.28958 7.4875C8.16042 7.30937 7.94062 7.24167 7.80729 7.21667C7.84167 7.16562 7.91875 7.0875 8.01458 7.04062C8.25625 6.91979 8.69167 6.90208 9.12396 6.90208H9.36458C9.83333 6.90833 9.95417 6.93854 10.124 6.98125C10.4677 7.06354 10.475 7.28542 10.4448 8.04479C10.4354 8.26042 10.426 8.50417 10.426 8.79167C10.426 8.85417 10.4229 8.92083 10.4229 8.99167C10.4125 9.37812 10.4 9.81667 10.6729 9.99687C10.7083 10.0188 10.749 10.0312 10.7917 10.0312C10.8865 10.0312 11.1719 10.0312 11.9448 8.70521C12.2833 8.11979 12.5458 7.42917 12.5646 7.37812C12.5802 7.35104 12.626 7.26771 12.6802 7.23542C12.7229 7.21042 12.7802 7.20521 12.8094 7.20521H14.6646C14.8667 7.20521 15.0052 7.23542 15.0312 7.31354C15.0771 7.4375 15.0229 7.81562 14.176 8.9625C14.0333 9.15208 13.9073 9.31771 13.7979 9.46146C13.0302 10.4677 13.0302 10.5188 13.8458 11.2823Z" fill="white" fill-opacity="0.3"/>
</svg>

<svg width="20" height="20" fill="none" xmlns="http://www.w3.org/2000/svg"><path d="M10 0C4.477 0 0 4.477 0 10s4.477 10 10 10 10-4.477 10-10S15.523 0 10 0zm3.846 11.282s.884.873 1.102 1.278c.006.009.01.017.011.021.089.15.11.265.066.351-.073.144-.323.215-.408.221h-1.563c-.108 0-.335-.028-.61-.218-.212-.148-.42-.39-.623-.627-.303-.352-.566-.656-.83-.656a.317.317 0 00-.1.016c-.2.064-.456.35-.456 1.11 0 .238-.187.374-.32.374H9.4c-.244 0-1.514-.085-2.639-1.272-1.377-1.453-2.616-4.368-2.627-4.395-.078-.188.084-.29.26-.29h1.578c.21 0 .279.129.327.242.056.133.262.659.601 1.25.549.965.885 1.357 1.155 1.357a.312.312 0 00.145-.038c.352-.196.286-1.45.27-1.711 0-.05 0-.562-.18-.808-.13-.178-.35-.245-.483-.27a.574.574 0 01.208-.176c.241-.121.677-.139 1.109-.139h.24c.47.006.59.037.76.08.344.082.351.303.32 1.063-.009.215-.018.46-.018.747 0 .062-.003.129-.003.2-.01.386-.023.825.25 1.005a.225.225 0 00.119.034c.095 0 .38 0 1.153-1.326.338-.585.6-1.276.62-1.327.015-.027.061-.11.115-.143.043-.025.1-.03.13-.03h1.855c.202 0 .34.03.366.109.046.123-.008.502-.855 1.649l-.378.498c-.768 1.007-.768 1.058.048 1.821z" fill="#fff" fill-opacity=".3"/></svg>
